X: 275
T: A Dance  
O: No 275 Page 38 William Clarke MS, Feltwell,Norfolk
M: 6/8
L: 1/8
K: C
G | c2d edc | A2c G2E | G2c cde | f2d  d2e |
c2d edc | A2c G2E | G2c d2B | c3 c2 :|
|:e | d2g {a}g^fg | e2g {a}g^fg | d2g {a}g^fg | ege c2e | 
d2g {a}g^fg | e2g {a}g^fg | ^faf def |gag =fed |
c2d edc | A2c G2E | G2c cde | f2d  d2e |
c2d edc | A2c G2E | G2c d2B | c3 c2 |]

